X:21
T: Week 2 - How to identify Secondary Dominant
T: Step 1: Find the altered chord (with accidental).
T: Step 2: It needs to be either a major triad or major-minor seventh chord
T: Step 3: Find the note a P5 below the root of the altered chord
T: Step 4: Could a diatonic major or minor triad built on this note in this key? If so, it is a secondary dominant chord. 
T: Step 5: The P5 below the root of the secondary dominant chord determines the V of ? in the given key. 
L:1/1
K:G
[^GBe][Ace]||[K:Cmin][Ac^f]||[K:Ab][_G,,A,,C,E,][D,,F,,A,,D,]||[K:F][B_dfg]||[K:Emin][D,=F,G,B,][C,E,G,]||
w:G:~V/ii ii    c:~not~major    Ab:~V42/vi?      vi           F:~not~major            e:~V43/VI   VI
